X:45
T:Bransle
C:Claude Gervaise
L:1/8
M:4/4
O:France
Z:Andy Hornby
%%TUNEURL: http://www.leeds.ac.uk/music/Info/RRTuneBk/gettune/00000d8c.html
%%ID:00000d8c
K:G
G2A2B2B2|c2B2A2G2|B2B2A2G2|A4A4|
G2A2B2B2|c2B2A2G2|B2B2A2G2|G2F2G4:|
|:d2d2B2B2|AB cA B2c2|d2d2B2B2|AB cA B4:|
